X:1
T:Title
%%score { 1 | ( 2 3 ) }
L:1/8
M:4/4
K:D
V:1 treble nm="Grand Piano"
V:2 bass 
V:3 bass 
V:1
 z4 z2[Q:1/4=92] F[EG] | [FA]2 [FA]2 [FA]2 [FA][FA] | [DGB]2 [DGB]2 [DFA]2 [DFA]2 | %3
 [DGB]2 [DGB][DGB] [DFA]2 [A,DF]2 | [A,CE]6 [A,DF][A,EG] | [FA]2 [FA]2 [FA]2 [FA][FA] | %6
 [DGB]2 [DGB]2 [FA]2 [FA]A | [DGB]2 [DGB][DGB] [CEA]2 [EGc]2 | [Fd]6 [FA][FA] | B3 A B [Bd]2 [GB] | %10
 [FA]2 [FA]2 [DF]2 [Fd]2 | F F2 E D2 F2 | [CE]6 [DF][EG] | [FA]2 [FA]2 [FA]2 [FA][FA] | %14
 [DGB]2 [DGB]2 [FA]2 [FA]A | [DGB]2 [DGB][DGB] [CEA]2 [EGc]2 | [DFd]8 | d2 dd c2 B2 | A8 | %19
 B2 BB A2 G2 | F6 F[EG] | [FA]2 [FA]2 [FA]2 [FA][FA] | [DGB]2 [DGB]2 [FA]2 [FA]A | %23
 [DGB]2 [DGB][DGB] [CEA]2 [EGc]2 |[M:3/4] [DFd]6 |] %25
V:2
 z4 z2 [D,D][D,D] | [D,D]2 [D,D]2 [D,D]2 [D,D][D,D] | G,,2 B,,2 D,2 D,2 | G,,2 B,,B,, D,2 D,2 | %4
 A,,6 D,D, | [D,D]2 [D,D]2 [D,D]2 [D,D][D,D] | z4 z2 [D,D]2 | G,,2 G,,G,, A,,2 A,,2 | %8
 [D,D]6 [D,D][D,D] | [G,DG]3 [G,DG] [G,DG] [G,D]2 [G,D] | [D,D]2 [D,D]2 [D,A,]2 [D,A,]2 | %11
 [D,A,D] [D,A,D]2 [D,A,C] [D,F,]2 [D,A,D]2 | [A,,A,]6 [D,A,][D,A,] | %13
 [D,D]2 [D,D]2 [D,D]2 [D,D][D,D] | z4 z2 [D,D]2 | G,,2 G,,G,, A,,2 A,,2 | D,8 | B2 BB A2 G2 | F8 | %19
 G2 GG F2 E2 | D6[K:bass] [D,A,D][D,A,] | [D,D]2 [D,D]2 [D,D]2 [D,D][D,D] | z4 z2 [D,D]2 | %23
 G,,2 G,,G,, A,,2 A,,2 |[M:3/4] D,6 |] %25
V:3
 x8 | x8 | x8 | x8 | x8 | x8 | G,,2 B,,2 [D,D]2 z F | x8 | x8 | x8 | x8 | x8 | x8 | x8 | %14
 G,,2 B,,2 [D,D]2 z F | x8 | x8 | x8 | x8 | x8 | x6[K:bass] x2 | x8 | G,,2 B,,2 [D,D]2 z F | x8 | %24
[M:3/4] x6 |] %25

